public/cloud-icons/azure/data/azure-cosmos-db-dedicated-gateway.svg

<?xml version="1.0" encoding="UTF-8" standalone="no"?>
<!-- Generated by Microsoft Visio, SVG Export Azure Cosmos DB Dedicated Gateway.svg Page-1 -->

<svg
   xmlns:dc="http://purl.org/dc/elements/1.1/"
   xmlns:cc="http://creativecommons.org/ns#"
   xmlns:rdf="http://www.w3.org/1999/02/22-rdf-syntax-ns#"
   xmlns:svg="http://www.w3.org/2000/svg"
   xmlns="http://www.w3.org/2000/svg"
   xmlns:sodipodi="http://sodipodi.sourceforge.net/DTD/sodipodi-0.dtd"
   xmlns:inkscape="http://www.inkscape.org/namespaces/inkscape"
   width="56.695606"
   height="56.694378"
   viewBox="0 0 56.695608 56.694379"
   xml:space="preserve"
   class="st6"
   version="1.1"
   id="svg43"
   sodipodi:docname="Azure Cosmos DB Dedicated Gateway.svg"
   style="font-size:12px;overflow:visible;color-interpolation-filters:sRGB;fill:none;fill-rule:evenodd;stroke-linecap:square;stroke-miterlimit:3"
   inkscape:version="0.92.5 (2060ec1f9f, 2020-04-08)"><metadata
   id="metadata47"><rdf:RDF><cc:Work
       rdf:about=""><dc:format>image/svg+xml</dc:format><dc:type
         rdf:resource="http://purl.org/dc/dcmitype/StillImage" /></cc:Work></rdf:RDF></metadata><sodipodi:namedview
   pagecolor="#ffffff"
   bordercolor="#666666"
   borderopacity="1"
   objecttolerance="10"
   gridtolerance="10"
   guidetolerance="10"
   inkscape:pageopacity="0"
   inkscape:pageshadow="2"
   inkscape:window-width="640"
   inkscape:window-height="480"
   id="namedview45"
   showgrid="false"
   inkscape:zoom="1.9055002"
   inkscape:cx="28.347803"
   inkscape:cy="27.909236"
   inkscape:window-x="0"
   inkscape:window-y="0"
   inkscape:window-maximized="0"
   inkscape:current-layer="svg43" />
	<style
   type="text/css"
   id="style2">
	<![CDATA[
		.st1 {fill:#c6c6c6;stroke:none;stroke-linecap:butt;stroke-width:33.1432}
		.st2 {fill:url(#grad0-7)}
		.st3 {stroke:none;stroke-linecap:butt;stroke-width:33.1432}
		.st4 {fill:#50e6ff}
		.st5 {fill:#ffffff;stroke:none;stroke-linecap:butt;stroke-width:33.1432}
		.st6 {fill:none;fill-rule:evenodd;font-size:12px;overflow:visible;stroke-linecap:square;stroke-miterlimit:3}
	]]>
	</style>

	<defs
   id="Patterns_And_Gradients">
		<linearGradient
   id="grad0-7"
   x1="0.55768108"
   y1="123.23079"
   x2="38.590213"
   y2="123.23079"
   gradientTransform="scale(1.3020283,0.76803247)"
   gradientUnits="userSpaceOnUse">
			<stop
   offset="0"
   stop-color="#5ea0ef"
   stop-opacity="1"
   id="stop4" />
			<stop
   offset="0.5"
   stop-color="#0078d4"
   stop-opacity="1"
   id="stop6" />
			<stop
   offset="1"
   stop-color="#005ba1"
   stop-opacity="1"
   id="stop8" />
		</linearGradient>
	</defs>
	<g
   id="g41"
   transform="translate(-33.141695,-33.140857)">
		<title
   id="title12">Page-1</title>
		<g
   id="group21065-1"
   transform="translate(33.1432,-34.0157)">
			<title
   id="title14">Azure Cosmos DB Dedicated Gateway.21065</title>
			<g
   id="shape21066-2">
				<title
   id="title16">path4</title>
				<path
   d="m 31.43,115.47 h -0.27 a 0.371666,0.379935 0 0 1 -0.368515,-0.37672 L 30.8,106.21 a 25.5662,26.135 0 0 1 -5.38,0 v 8.88 a 0.368517,0.376715 0 0 1 -0.368526,0.37672 L 20.66,115.47 a 0.368517,0.376715 -180 0 0 -0.393715,0.34774 0.359067,0.367055 -180 0 0 0.125989,0.32197 L 27.83,123.74 a 0.365367,0.373495 -180 0 0 0.519703,0 L 35.79,116.14 a 0.365367,0.373495 -180 0 0 -0.267733,-0.64396 z M 17.66,102.54 a 25.0024,25.5586 0 0 1 -5.23,-3.26 v 7.15 a 0.557499,0.569902 0 0 1 -0.557499,0.5699 L 8.25,107 A 0.368517,0.376715 0 0 1 7.881484,106.62329 L 7.88,102.29 a 0.368517,0.376715 -180 0 0 -0.365367,-0.37672 0.359067,0.367055 -180 0 0 -0.264576,0.10947 L 0.16,109.27 a 0.560649,0.573122 -180 0 0 0,0.80495 L 7.25,117.33 a 0.368517,0.376715 -180 0 0 0.519703,0 0.371666,0.379935 -180 0 0 0.11024,-0.27045 L 7.88,112.73 a 0.368517,0.376715 0 0 1 0.368516,-0.37671 L 17.1,112.35 a 0.557499,0.569902 -180 0 0 0.560649,-0.56346 L 17.66,107 Z m 38.87,6.73 -7.09,-7.25 a 0.368517,0.376715 -180 0 0 -0.522851,0 0.355918,0.363836 -180 0 0 -0.10708,0.26725 L 48.81,106.63 a 0.368517,0.376715 0 0 1 -0.368515,0.37672 L 44.82,107.01 a 0.55435,0.566682 0 0 1 -0.560649,-0.56346 L 44.26,98.88 c -0.19,0.16 -0.37,0.34 -0.56,0.49 a 25.3678,25.9321 0 0 1 -4.67,2.92 v 9.49 a 0.557499,0.569902 -180 0 0 0.557502,0.5699 L 48.44,112.35 a 0.368517,0.376715 0 0 1 0.368518,0.37671 L 48.81,117.08 a 0.368517,0.376715 -180 0 0 0.629941,0.26725 L 56.53,110.09 a 0.55435,0.566682 -180 0 0 0,-0.80495 z"
   class="st1"
   id="path18"
   inkscape:connector-curvature="0"
   style="fill:#c6c6c6;stroke:none;stroke-width:33.14319992;stroke-linecap:butt" />
			</g>
			<g
   id="shape21067-4"
   transform="translate(2.86081,-15.7268)">
				<title
   id="title21">path6</title>
				<path
   d="M 48.1,105.8 31.12,95.91 a 11.3579,11.6105 -180 0 0 -10.31,0 L 2.83,106.57 c -2.83,1.69 -2.8,4.42 0.06,6.12 l 16.97,9.9 a 11.3106,11.5622 -180 0 0 10.29,0 l 17.97,-10.68 a 3.14971,3.21978 -180 0 0 -0.03,-6.1 z"
   class="st2"
   id="path23"
   inkscape:connector-curvature="0"
   style="fill:url(#grad0-7)" />
				<path
   d="M 48.1,105.8 31.12,95.91 a 11.3579,11.6105 -180 0 0 -10.31,0 L 2.83,106.57 c -2.83,1.69 -2.8,4.42 0.06,6.12 l 16.97,9.9 a 11.3106,11.5622 -180 0 0 10.29,0 l 17.97,-10.68 a 3.14971,3.21978 -180 0 0 -0.03,-6.1"
   class="st3"
   id="path25"
   inkscape:connector-curvature="0"
   style="stroke:none;stroke-width:33.14319992;stroke-linecap:butt" />
			</g>
			<g
   id="shape21068-9"
   transform="translate(2.86081,-27.4863)">
				<title
   id="title28">path8</title>
				<path
   d="M 48.1,105.82 31.12,95.92 A 11.339,11.5912 -180 0 0 20.81,95.9 L 2.83,106.57 c -2.83,1.69 -2.8,4.42 0.06,6.12 l 16.97,9.89 a 11.2917,11.5429 -180 0 0 10.29,0 l 17.97,-10.67 a 3.14971,3.21978 -180 0 0 -0.03,-6.09 z"
   class="st4"
   id="path30"
   inkscape:connector-curvature="0"
   style="fill:#50e6ff" />
				<path
   d="M 48.1,105.82 31.12,95.92 A 11.339,11.5912 -180 0 0 20.81,95.9 L 2.83,106.57 c -2.83,1.69 -2.8,4.42 0.06,6.12 l 16.97,9.89 a 11.2917,11.5429 -180 0 0 10.29,0 l 17.97,-10.67 a 3.14971,3.21978 -180 0 0 -0.03,-6.09"
   class="st3"
   id="path32"
   inkscape:connector-curvature="0"
   style="stroke:none;stroke-width:33.14319992;stroke-linecap:butt" />
			</g>
			<g
   id="shape21069-12"
   transform="translate(21.4959,-31.8255)">
				<title
   id="title35">path10</title>
				<path
   d="m 9,102.45 a 0.381115,0.389594 -180 0 0 -0.192133,-0.0515 0.491355,0.502286 -180 0 0 -0.343319,0.19963 L 0.07,115.08 a 0.488206,0.499067 -180 0 0 -0.0440954,0.45077 0.494505,0.505506 -180 0 0 0.390564,0.24792 L 5.44,115.78 3.2,123.31 a 0.374816,0.383154 -180 0 0 0.195284,0.49585 0.314971,0.321978 -180 0 0 0.192133,0.0483 0.491355,0.502286 -180 0 0 0.343319,-0.19962 L 12.57,111.02 c 0.05,-0.1 0.09,-0.14 0.09,-0.24 a 0.434661,0.44433 -180 0 0 -0.4315,-0.45077 L 7.05,110.33 9.21,102.95 a 0.371666,0.379935 -180 0 0 -0.201582,-0.50229 z"
   class="st5"
   id="path37"
   inkscape:connector-curvature="0"
   style="fill:#ffffff;stroke:none;stroke-width:33.14319992;stroke-linecap:butt" />
			</g>
		</g>
	</g>
</svg>

<svg xmlns="http://www.w3.org/2000/svg" xml:space="preserve" width="56.696" height="56.694" style="font-size:12px;overflow:visible;color-interpolation-filters:sRGB;fill-rule:evenodd;stroke-linecap:square;stroke-miterlimit:3" viewBox="0 0 56.696 56.694"><defs><linearGradient id="a" x1=".558" x2="38.59" y1="123.231" y2="123.231" gradientTransform="scale(1.30203 .76803)" gradientUnits="userSpaceOnUse"><stop offset="0" stop-color="#5ea0ef"/><stop offset=".5" stop-color="#0078d4"/><stop offset="1" stop-color="#005ba1"/></linearGradient></defs><g transform="translate(-33.142 -33.14)"><title>Page-1</title><g transform="translate(33.143 -34.016)"><title>Azure Cosmos DB Dedicated Gateway.21065</title><title>path4</title><path d="M31.43 115.47h-.27a.372.38 0 0 1-.369-.377l.009-8.883a25.566 26.135 0 0 1-5.38 0v8.88a.369.377 0 0 1-.369.377l-4.391.003a.369.377-180 0 0-.394.348.36.367-180 0 0 .126.322l7.438 7.6a.365.373-180 0 0 .52 0l7.44-7.6a.365.373-180 0 0-.268-.644zm-13.77-12.93a25.002 25.559 0 0 1-5.23-3.26v7.15a.557.57 0 0 1-.557.57H8.25a.369.377 0 0 1-.369-.377l-.001-4.333a.369.377-180 0 0-.365-.377.36.367-180 0 0-.265.11L.16 109.27a.56.573-180 0 0 0 .805l7.09 7.255a.369.377-180 0 0 .52 0 .372.38-180 0 0 .11-.27v-4.33a.369.377 0 0 1 .369-.377l8.851-.003a.557.57-180 0 0 .56-.563V107Zm38.87 6.73-7.09-7.25a.369.377-180 0 0-.523 0 .356.364-180 0 0-.107.267v4.343a.369.377 0 0 1-.369.377l-3.621.003a.554.567 0 0 1-.56-.563V98.88c-.19.16-.37.34-.56.49a25.368 25.932 0 0 1-4.67 2.92v9.49a.557.57-180 0 0 .558.57h8.852a.369.377 0 0 1 .369.377l.001 4.353a.369.377-180 0 0 .63.267l7.09-7.257a.554.567-180 0 0 0-.805z" style="fill:#c6c6c6;stroke:none;stroke-width:33.14319992;stroke-linecap:butt"/><g transform="translate(2.86 -15.727)"><title>path6</title><path d="m48.1 105.8-16.98-9.89a11.358 11.61-180 0 0-10.31 0L2.83 106.57c-2.83 1.69-2.8 4.42.06 6.12l16.97 9.9a11.31 11.562-180 0 0 10.29 0l17.97-10.68a3.15 3.22-180 0 0-.03-6.1z" style="fill:url(#a)"/><path d="m48.1 105.8-16.98-9.89a11.358 11.61-180 0 0-10.31 0L2.83 106.57c-2.83 1.69-2.8 4.42.06 6.12l16.97 9.9a11.31 11.562-180 0 0 10.29 0l17.97-10.68a3.15 3.22-180 0 0-.03-6.1" style="stroke:none;stroke-width:33.14319992;stroke-linecap:butt"/></g><g transform="translate(2.86 -27.486)"><title>path8</title><path d="m48.1 105.82-16.98-9.9a11.339 11.591-180 0 0-10.31-.02L2.83 106.57c-2.83 1.69-2.8 4.42.06 6.12l16.97 9.89a11.292 11.543-180 0 0 10.29 0l17.97-10.67a3.15 3.22-180 0 0-.03-6.09z" style="fill:#50e6ff"/><path d="m48.1 105.82-16.98-9.9a11.339 11.591-180 0 0-10.31-.02L2.83 106.57c-2.83 1.69-2.8 4.42.06 6.12l16.97 9.89a11.292 11.543-180 0 0 10.29 0l17.97-10.67a3.15 3.22-180 0 0-.03-6.09" style="stroke:none;stroke-width:33.14319992;stroke-linecap:butt"/></g><g transform="translate(21.496 -31.826)"><title>path10</title><path d="M9 102.45a.381.39-180 0 0-.192-.051.491.502-180 0 0-.343.2L.07 115.08a.488.5-180 0 0-.044.45.495.506-180 0 0 .39.249l5.024.001-2.24 7.53a.375.383-180 0 0 .195.496.315.322-180 0 0 .192.048.491.502-180 0 0 .344-.2l8.639-12.634c.05-.1.09-.14.09-.24a.435.444-180 0 0-.431-.45H7.05l2.16-7.38a.372.38-180 0 0-.202-.502z" style="fill:#fff;stroke:none;stroke-width:33.14319992;stroke-linecap:butt"/></g></g></g></svg>
